X: 2
T:Barn Dance 1
% Nottingham Music Database
S:McCusker Brothers
Y:AB
M:4/4
L:1/8
R:Hornpipe
K:D
P:A
(3fg^g|"D"a2a2 f2f2|"D"dA^GA B2A2|"Em"g2g2 e2e2|"A7"cA^GA B2A2|
"D"a2a2 f2f2|"D"dA^GA B2A2|"A7"cAce ba(3gfe|"D"d2f2 d2:|
P:B
e2|"D"f^e(3fga d2d2|"Em"e^d(3efg B2B2|"A7"cBcB Acec|"D"dcdf "A7"b2ag|
"D"f^e(3fga d2d2|"Em"e^d(3efg B2B2|"A7"cBcB Acec|"D"d2f2 d2:|


